!!!COM: Robert Schumann
!!!CNT: Deutsch
!!!TXO: Deutsch
!!!OTL: Die Lo2wenbraut
!!!LYR: Chassimo
!!!OPR: Drei Gesa2nge
!!!OPS: Op. 31
!!!ONM: No. 1
!!!ENC: Ben Fuhrman
!!!YOR: Schumann Lieder - Max Friedlaender, ed.,
!!!YOR: New York: C. F. Peters, Vol. 2
!!!ODT: 1840/
!!NB: Vocal melody and text only encoded.
!!NB: First instance of melodic material only encoded.
**kern	**silbe
*clefG2	*
*k[b-e-]	*
*M8/4	*
!!created: 06/21/06 11:00
!!proofed and posted: 06/21/06 11:00
!!edit time: 90 minutes
=3	=3
1r	.
2r	.
4r	.
{8d	{Mit
8d	der
=4	=4
4g	Myr-
8g	-te
8g	gesch
4g	mu2ckt
8f#	und
8g	dem
4.a	Braut
8f#	gesch
4d}	meid,}
8r	.
{8g	{des
=5	=5
4.cc	Wa2r-
8cc	-ters
4cc	Toch
8b-	-ter,
8cc	die
(8cc	ro-
8dd)	|
8dd	-si-
8b-	-ge
4g}	Meid,}
8r	.
{8g	{tritt
=6	=6
4e	ein
8e	in
8e	den
4g	Zwin-
8g	-ger
8g	des
4e	Lo2-
4e}	-wen;}
8r	.
{8g	{er
8g	liegt
8g	der
=7	=7
4g	Her-
8g	-rin
8g	zu
4b-	Fu2s-
8a	-sen,
8g	vor
4f#	der
8g	er
8g	sich
4a}	schmiegt.}
4r	.
!! rest to measure 10
=10	=10
1r	.
2r	.
4r	.
{8d	{Der
8d	Ge-
=11	=11
4g	-wal-
8g	-ti-
8g	-ge,
4g	wild
8f#	und
8g	un-
4a	-ba2n-
8a	-dig
8f#	zu
4d}	vor,}
8r	.
{8g	{schaut
=12	=12
4cc	fromm
8cc	und
8cc	ver-
4cc	-sta2n-
8b-	-dig
8cc	zur
4dd	Her-
8dd	-rin
8b-	em-
4g}	-por;}
8r	.
{8g	{die
=13	=13
4.g	Jung-
8g	-frau,
(4dd	zart
8b-)	|
8g	und
4.g	won-
8ee-	-ne
4.dd	reich,
8cc	lieb-
=14	=14
4b-	-reich-
8b-	-elt
8a	ihn
(4g	sanft
8f#)	|
8g	und
4f#	wei-
8g	-net
8g	zu-
4a}	-gleich:}
4a	.
=15	=15
*k[f#]	*
*M3/2	*
2r	.
2r	.
4r	.
8r	.
{8a	{"Wir
=16	=16
4b	wa-
8b	-ren
8b	in
4dd	Ta-
8dd	-gen,
8dd	die
4.g	nicht
8a	mehr
=17	=17
2b}	sind,}
2r	.
4r	.
{4a	{gar
=18	=18
4b	treu-
8e	-e
8b	Ge-
4dd	-spie-
8dd	-len
8dd	wie
4.g	Kind
8a	und
=19	=19
2b}	Kind,}
2r	.
4r	.
{4g	{und
=20	=20
4f#	hat-
8f#	-ten
8f#	uns
4.a	lieb
8a	und
4d	hat-
8e	-ten
8e	uns
=21	=21
2f#}	gern;}
2r	.
4r	.
8r	.
{8e	{die
=22	=22
4f#	Ta-
8f#	-ge
8f#	der
4a	Kind-
8a	-heit,
8a	sie
4d	lie-
8e	-gen
8e	uns
=23	=23
2f#}	fern.}
2r	.
4r	.
8r	.
{8d	{Du
=24	=24
4d	schu2t-
8d	-tel-
8d	-test
4.dd	macht-
8dd	-voll,
4dd	eh'
8b	wir's
8g	ge-
=25	=25
(4g	-glaubt,
2f#)}	|}
4r	.
4r	.
{4d	{dein
=26	=26
4d	ma2h-
8d	-nen-
8d	-um-
4.cc	-wog-
8cc	-tes
4cc	ko2-
8b	-nig-
8g	-lich
=27	=27
(4g	Haupt;
2f#)}	|}
4r	.
4r	.
{4d	{ich
=28	=28
4.d	wuchs
8d	her-
4dd	-an,
4dd	du
4dd	siehst
8b	es:
8g	ich
=29	=29
(4g	bin,
2f#)}	|}
{4f#	{ich
4g	bin
4b	das
=30	=30
4.dd	Kind
8a	nicht
4.a	mehr
8cc	kit
4b	kin-
8g	-di-
8g	-schem
=31	=31
2f#}	Sinn.}
2r	.
4r	.
{4a	{O
=32	=32
4b	wa2r'
8b	ich
8b	das
4ee	Kind
8dd	noch
8dd	und
4g	blie-
8a	-be
8a	bei
=33	=33
2b}	dir,}
2r	.
4r	.
{4a	{mein
=34	=34
4b	star-
8b	-kes,
8b	ge-
4dd	-treu-
8dd	-es,
8dd	mein
4g	red-
8a	-li-
8a	-ches
=35	=35
2b}	Tier!}
2r	.
4r	.
{4g	{Ich
=36	=36
4g	a-
8g	-ber
8g	muss
4cc	fol-
8cc	-gen,
8cc	sie
(8fn	ta-
8g)	|
8g	-ten
8g	mir's
=37	=37
2cc}	an,}
2r	.
4r	.
{4cc	{hin-
=38	=38
4cc	-aus
8cc	in
8cc	die
4cc	Frem-
8cc	-de
8cc	dem
(8dd	frem
4fn)	|
8g	-den
=39	=39
2cc}	Mann.}
2r	.
4r	.
8r	.
{8cc	{Es
=40	=40
4.cc	fiel
8cc	ihm
4cc	ein,
4cc	dass
(6cc	scho2n
6ee)	|
6dd	ich
=41	=41
2dd}	sei,}
2r	.
4r	.
{4cc	{ich
=42	=42
4cc	wur-
8cc	-de
8cc	ge-
4cc	-freit,
4ee	es
4dd	ist
8dd	nun
8b	vor-
=43	=43
2a}	bei:}
2r	.
4r	.
{4cc	{der
=44	=44
4.cc	Kranz
8cc	im
4cc	Haar,
4cc	mein
6cc	gu-
6ee	-ter
6dd	Ge-
=45	=45
(qdd	-sell,
2cc)}	|}
2r	.
4r	.
{8cc	{und
8cc	vor
=46	=46
4cc	Tra2-
4cc	-nen
4.ee	nicht
8ee	die
4dd	Blik-
8dd	-ke
8b	mehr
=47	=47
(4b	hell.
2a)}	|}
4r	.
4r	.
{4a	{Ver-
=48	=48
*k[b-e-]	*
4b-	-stehst
8b-	du
8b-	mich
4dd	ganz?
4dd	Schaust
4g	grim-
8a	-mig
8a	da-
=49	=49
2b-}	zu,}
2r	.
4r	.
8r	.
{8a	{ich
=50	=50
4b-	bin
8b-	ja
8b-	ge-
4dd	-fasst,
4g	sei
4g	ru-
8a	-hig
8a	auch
=51	=51
2b-}	du;}
2r	.
4r	.
{4f	{dort
=52	=52
4g	seh'
8g	ich
8g	ihn
4b-	kom-
8b-	-men,
8b-	dem
4e-	fol-
8f	-gen
8f	ich
=53	=53
2g}	muss,}
2r	.
4r	.
8r	.
{8f	{so
=54	=54
4g	geb'
8g	ich
8g	denn,
4b-	Freund,
8b-	dir
8b-	den
4a	letz-
4g	-ten
=55	=55
(4f#	Kuss!"
2a)}	|}
4r	.
2r	.
!! rest to measure 58
=58	=58
*M8/4	*
1r	.
2r	.
4r	.
{4d	{Und
=59	=59
4g	wie
8g	ihn
8g	die
4g	Lip-
8f#	-pe
8g	des
4a	Ma2d-
8a	-chens
8f#	ber-
4d}	-u2hrt}
8r	.
{8g	{da
=60	=60
4cc	hat
8cc	man
8cc	den
4cc	Zwin-
8b-	-ger
8cc	er-
4dd	-zit-
8dd	-tern
8b-	ges-
4g}	-pu2rt,}
8r	.
{8g	{und
=61	=61
4g	wie
8g	er
8g	am
4dd	Zwin-
8b-	-ger
8g	den
4ee-	Ju2ng-
8ee-	-ling
8ee-	er-
4.dd}	-schaut,}
{8cc	{er-
=62	=62
4.b-	fasst
8a	Ent-
4g	-set-
8f#	-zen
8g	die
4f#	ban-
8g	-gen-
8g	-de
4a}	Braut.}
8r	.
{8d	{Er
=63	=63
4g	stellt
8g	an
8g	die
4g	Tu2r
8f#	sich
8g	des
4a	Zwing-
8a	-ers
8f#	zur
4d}	Wacht,}
8r	.
{8g	{er
=64	=64
4cc	schwin-
8cc	-get
8cc	den
4cc}	Schweif,}
8r	.
{8cc	{er
4dd	bru2l-
8dd	-let
8b-	mit
4g}	Macht;}
8.r	.
{16g	{sie
=65	=65
4g	fle-
8.g	-hend,
16g	ge-
4b-	-bie-
8.g	-tend
16g	und
4ee-	dro-
8.ee-	-hend
16ee-	be-
8.dd	-gehrt
16g	hin-
4g}	-aus;}
=66	=66
{4..e-	{er
16e-	im
4..g	Zorn
16e-	den
4..cc	Aus-
16cc	-gang
2b-}	wehrt.}
!! rest to measure 68
=68	=68
1r	.
2r	.
4r	.
8.r	.
{16f	{Und
=69	=69
4b-	draus-
8b-	-sen
8b-	er
4b-	hebt
8b-	sich
8b-	ver
4cc	wor-
8cc	-ren
8a	Gesch-
4f}	-rei.}
8r	.
{8b-	{Der
=70	=70
4.ee-	Ju2ng-
8ee-	-ling
4ee-	ruft:
4ee-	bringt
4ff	Waff-
8ff	-en
8dd	her-
4b-}	-bei,}
8.r	.
{16b-	{ich
=71	=71
4..b-	schiess'
16b-	ihn
4dd	nie-
8.b-	-der,
16b-	ich
4.b-	treff'
8b-	ihn
2dd}	gut.}
=72	=72
{4g	{Auf
12g	bru2llt
12g	der
12g	Ge-
4..b-	-reiz-
16g	-te
4g	scha2u-
8.g	-mend
16g	vor
4b-}	Wut.}
8r	.
{16d	{Die
16d	Un-
=73	=73
4d	se-
8d	-li-
8d	-ge
4g	wagt's
8g	sich
8g	der
4cc	Tu2-
8cc	-re
8cc	zu
4a}	nah'n}
8r	.
{8f	{da
=74	=74
4f	da
8.f	er
16f	ver
4b-	wan-
8b-	-delt
8b-	die
8.ee-	Her-
16e-	-rin
4e-}	an:}
4r	.
8r	.
{8a-	{die
=75	=75
4a-	scho2-
8.a-	-ne
16a-	Ge-
4.an	-stalt,
8an	ein
4b-	gra2ss-
8.b-	-li-
16b-	-cher
4bn}	Raub,}
8r	.
{8bn	{liegt
=76	=76
4bn	blu-
8.bn	-tig
16bn	zer-
4cc	-ris-
8cc	-sen
8cc	ent-
4cc#	-stellt
8.cc#	in
16cc#	dem
2dd}	Staub.}
!! rest to measure 78
=78	=78
1r	.
2r	.
4r	.
8r	.
{8d	{Und
=79	=79
4g	wie
8g	er
8g	ver-
4g	-gos-
8f#	-sen
8g	das
4.a	teu-
8f#	-re
4d}	Blut,}
8r	.
{8g	{er
=80	=80
4cc	legt
8cc	sich
8cc	zur
4cc	Lei-
8b-	-che
8cc	mit
4dd	fin-
8dd	-ste-
8b-	-rem
4g}	Mut,}
8r	.
{8g	{er
=81	=81
4e-	liegt
8e-	so
8e-	ver-
(8g	-sun-
8d)	|
8d	-ken
8d	in
4e-	Trau-
8e-	-er
8e-	und
4g}	Schmerz,}
8r	.
{8g	{bis
=82	=82
4g	to2t-
8g	-lich
8g	die
4b-	Ku-
8a	-gel
8g	ihn
4f#	trifft
8f#	in
8g	das
4a}	Herz.}
4r	.
==	==
*-	*-
